icon-themes/sifr_svg/cmd/32/defaultbullet.svg

<svg viewBox="0 0 32 32" xmlns="http://www.w3.org/2000/svg"><path d="m7 3c-1.6568542 0-3 1.3431458-3 3s1.3431458 3 3 3 3-1.3431458 3-3-1.3431458-3-3-3zm6 0v2h15v-2zm0 4v2h15v-2zm0 4v2h9v-2zm-6 7c-1.6568542 0-3 1.343146-3 3s1.3431458 3 3 3 3-1.343146 3-3-1.3431458-3-3-3zm6 0v2h15v-2zm0 4v2h15v-2zm0 4v2h7v-2z" fill="#555753"/></svg>

<?xml version="1.0" encoding="UTF-8" standalone="no"?>
<svg
   xmlns:dc="http://purl.org/dc/elements/1.1/"
   xmlns:cc="http://creativecommons.org/ns#"
   xmlns:rdf="http://www.w3.org/1999/02/22-rdf-syntax-ns#"
   xmlns:svg="http://www.w3.org/2000/svg"
   xmlns="http://www.w3.org/2000/svg"
   xmlns:sodipodi="http://sodipodi.sourceforge.net/DTD/sodipodi-0.dtd"
   xmlns:inkscape="http://www.inkscape.org/namespaces/inkscape"
   viewBox="0 0 32 32"
   version="1.1"
   id="svg8"
   sodipodi:docname="defaultbullet.svg"
   inkscape:version="0.92.4 (unknown)">
  <metadata
     id="metadata14">
    <rdf:RDF>
      <cc:Work
         rdf:about="">
        <dc:format>image/svg+xml</dc:format>
        <dc:type
           rdf:resource="http://purl.org/dc/dcmitype/StillImage" />
        <dc:title></dc:title>
      </cc:Work>
    </rdf:RDF>
  </metadata>
  <defs
     id="defs12" />
  <sodipodi:namedview
     pagecolor="#ffffff"
     bordercolor="#666666"
     borderopacity="1"
     objecttolerance="10"
     gridtolerance="10"
     guidetolerance="10"
     inkscape:pageopacity="0"
     inkscape:pageshadow="2"
     inkscape:window-width="1366"
     inkscape:window-height="706"
     id="namedview10"
     showgrid="true"
     inkscape:zoom="10.429825"
     inkscape:cx="8.0410626"
     inkscape:cy="20.898106"
     inkscape:window-x="0"
     inkscape:window-y="0"
     inkscape:window-maximized="1"
     inkscape:current-layer="g6"
     inkscape:snap-smooth-nodes="true">
    <inkscape:grid
       type="xygrid"
       id="grid821" />
  </sodipodi:namedview>
  <g
     fill="#555753"
     id="g6">
    <path
       d="M 7 3 C 5.3431458 3 4 4.3431458 4 6 C 4 7.6568542 5.3431458 9 7 9 C 8.6568542 9 10 7.6568542 10 6 C 10 4.3431458 8.6568542 3 7 3 z M 13 3 L 13 5 L 28 5 L 28 3 L 13 3 z M 13 7 L 13 9 L 28 9 L 28 7 L 13 7 z M 13 11 L 13 13 L 22 13 L 22 11 L 13 11 z M 7 18 C 5.3431458 18 4 19.343146 4 21 C 4 22.656854 5.3431458 24 7 24 C 8.6568542 24 10 22.656854 10 21 C 10 19.343146 8.6568542 18 7 18 z M 13 18 L 13 20 L 28 20 L 28 18 L 13 18 z M 13 22 L 13 24 L 28 24 L 28 22 L 13 22 z M 13 26 L 13 28 L 20 28 L 20 26 L 13 26 z "
       id="path2" />
  </g>
</svg>
